X:1
T:Saint John Passion
T:Simon Petrus aber folgete Jesu nach, und ein ander Jünger
T:Simon Petrus aber folgete Jesu nach, und ein ander Jünger
T:Recitative for the Evangelist, BWV 245, Saint John Passion, 1724, NBA #8 More at http://bach.ejmaurath.com
T:Johann Sebastian Bach (1685--1750)
T:Martin Luther 1521 Translation of the Gospel of John
T:Sequenced by Edward J. Maurath
C:Johann Sebastian Bach (1685--1750)
Z:Saint John (Gospel)
Z:Sequenced by Edward J. Maurath
%%score 1 { 2 | 3 } 4
L:1/8
Q:1/4=60
M:4/4
K:Bb
V:1 tenor transpose=-12 nm="Tenore" snm="TEN"
V:2 treble nm="Cembalo\nContinuo" snm="CEM\nB.C."
V:3 bass 
V:4 bass nm="Viola da\nGamba\nContinuo" snm="VDG\nB.C."
V:1
"^60" z2"^Evangelista" .FF B.BBc | dd/e/ fd[Q:1/4=18]"^18" g[Q:1/4=54]"^54"G/c/ AB | BF z2 z4 |] %3
w: Si- mon Pe- trus a- ber|fol- ge- te Je- su nach und ein an- der|Jün- ger|
V:2
 [F,B,D]8- | [F,B,D]4 [B,CEG]2 z2 | z2 [B,DFB][CEFA] [DFB]4 |] %3
V:3
 D,8- | D,4 E,4 | z2 F,2 B,,4 |] %3
V:4
 D,8- | D,4 E,4 | z2 F,2 B,,4 |] %3

